X:1
T:Title
%%score { ( 1 3 ) | ( 2 4 ) }
L:1/8
M:6/8
K:Eb
V:1 treble nm="Grand Piano"
V:3 treble 
V:2 bass 
V:4 bass 
V:1
 z3 z2[Q:1/4=84] [EG]/[FA]/ | [GB]2 [GB] [GB][_G=A][=GB] | [Ge]3 [GB]2 [Ge] | %3
 [Fd]2 [Ac] [GB]2 [FA] |[M:5/8] [EG]-[EG]- [EG]3 |[M:1/8] [EG]/[FA]/ | %6
[M:3/4] [GB]2 [GB][GB] [_G=A][=GB] | [Ge]2 [Ge] [GB]2 [Gc] | z2 z .c3 |[M:5/8] [DB]-[DB]- [DB]3 | %10
[M:1/8] B |[M:3/4] [Ge]2 [Ge][Ge] [Gd][Gc] | d4 z2 | [Fd]2 [Ac] [GB]2 [FA] | %14
[M:5/8] [EG]-[EG]- [EG]3 |[M:1/8] [EGB] |[M:3/4] [EAc]>[EAc] [EAc] [=Af]2 [Ac] | %17
[M:7/8] d2 d e3 [B,E] |[M:3/4] [CEF]2 [Ec] [EB]2 D |[M:5/8] E-E- E3 |] %20
V:2
 z3 z2 [E,B,]/[E,B,]/ | [E,E]2 [E,E] [E,E][E,E][E,E] | [E,B,]3 [E,E]2 [E,B,] | %3
 [B,,B,]2 [B,,B,] [B,,B,]2 [B,,B,] |[M:5/8] [E,B,]-[E,B,]- [E,B,]3 |[M:1/8] [E,B,]/[E,B,]/ | %6
[M:3/4] [E,E]2 [E,E][E,E] [E,E][E,E] | [E,B,]2 [E,B,] [E,E]2 [E,B,] | %8
 [F,B,F]>[F,B,F] [F,B,F] [F,E]2 [F,=A,E] |[M:5/8] [B,,B,]-[B,,B,]- [B,,B,]3 |[M:1/8] [B,A] | %11
[M:3/4] [E,B,]2 [E,B,][E,B,] [E,B,][E,B,] | [F,B,]2 [F,B,][K:treble] [B,DF]2 [B,DF] | %13
 [B,,B,]3 [B,,B,]3 |[M:5/8] [E,B,]2 E, E,2 |[M:1/8] E, |[M:3/4] A,>A, A, [F,E]2[K:treble] [F,F] | %17
[M:7/8] [B,FB]2 [A,B,F][K:bass] [G,B,E]3 G,, |[M:3/4] A,,2 [=A,,_G,] [B,,=G,]2 [B,,A,B,] | %19
[M:5/8] [E,G,B,]-[E,G,B,]- [E,G,B,]3 |] %20
V:3
 x6 | x6 | x6 | x6 |[M:5/8] x5 |[M:1/8] x |[M:3/4] x6 | x6 | d>d .d2 G,c |[M:5/8] x5 |[M:1/8] x | %11
[M:3/4] x6 | A2 A A2 A | x6 |[M:5/8] z2 B, B,2 |[M:1/8] x |[M:3/4] x6 |[M:7/8] x7 |[M:3/4] x6 | %19
[M:5/8] x5 |] %20
V:4
 x6 | x6 | x6 | x6 |[M:5/8] x5 |[M:1/8] x |[M:3/4] x6 | x6 | z2 z =A, z2 |[M:5/8] x5 |[M:1/8] x | %11
[M:3/4] x6 | x3[K:treble] x3 | x6 |[M:5/8] x5 |[M:1/8] x |[M:3/4] x5[K:treble] x | %17
[M:7/8] x3[K:bass] x4 |[M:3/4] x6 |[M:5/8] x5 |] %20

